!!!COM: Jules Massenet
!!!CNT: Francais
!!!TXO: Francais
!!!OTL: De/claration
!!!LYR: Gustave Chouquet
!!!OPR: Chants Intimes
!!!ONM: No. 1
!!!ENC: Jacob Pegg
!!!YOR: Romantic French Song 1830-1870 - David Tunley, ed.,
!!!YOR: New York: Garland Publishing, Inc., 1995, Vol. 6
!!!ODT: 1866/
!!NB: Vocal melody and text only encoded.
!!NB: First instance of melodic material only encoded.
**kern	**silbe
*clef G2	*
*k[f#]	*
*M2/4	*
!!created: 12/21/03 14:20
!!proofed and posted: 1/22/04 0:33
!!edit time: 31 min.
=5	=5
4r;	.
{8b	{Je
8e	crains
=6	=6
8f#	tes
8g	bai-
8a}	-sers,}
16r	.
{16a	{o^
=7	=7
4cc	vier-
8b	-ge
8a	char-
=8	=8
(8g	-man-
8a	|
[8b	-te,
16b])}	|}
16r	.
=9	=9
8a	mais...
8r	.
8dd	toi...
8r	.
=10	=10
{8b	{ne
8a	crains
[8g	pas,
16g]}	|}
16r	.
=11	=11
{8g	{ne
8f#	crains
8e	pas
8b	les
=12	=12
[2a	miens!
=13	=13
8a]}	|}
8r	.
{4b	{De
=14	=14
4g	tous
8a	mes
8a	pen-
=15	=15
4f#	-sers
4b	la
=16	=16
4g	charge
8a	ac-
8a	-ca-
=17	=17
8f#	-blan-
8f#}	-te,}
{4g	{Ja-
=18	=18
4a	-mais
8b	ne
8cc	vien-
=19	=19
8b	-dra
8dd	po-
4g	-ser
=20	=20
4a	sur
4f#	les
=21	=21
4e}	tiens.}
4r	.
!! a material repeats until closing at
=33	=33
8r	.
8r	.
{8b	{Lais-
8b	-se
=34	=34
*k[f#c#g#d#]	*
4g#	moi
4a	t’of-
=35	=35
4f#	-frir,
4b	en-
=36	=36
4g#	-fant
8a	sans
8a	de/-
=37	=37
8f#	-fen-
8f#}	-se,}
{4f#	{un
=38	=38
4g#	coeur,
(16a#	un
16b	|
8cc#)	a-
=39	=39
[8b	-mour,
16b]}	|}
16r	.
{[8g#	{purs
16g#]}	|}
16r	.
=40	=40
{(8an	{com-
8ee)	|
(8g#	-me
8f#)	les
=41	=41
4e}	tiens!}
4r	.
*-	*-
